X: 33
T: No_128_The_Apache_Hid_Behind_Trees.krn
N: Derived from No_128_The_Apache_Hid_Behind_Trees.krn
%%abc-version 2.0
%%abcx-abcm2ps-target-version 5.9.1 (29 Sep 2008)
%%abc-creator hum2abc beta
%%abcx-conversion-date 2019/03/15 08:37:56
%%humdrum-veritas 1248305278
%%humdrum-veritas-data 2044521436
%%linebreak <none>
%%barnumbers 0
L: 1/8
M: 2/4
K: G clef=bass
E,E, [I:setbarnb 1]| 
B,B, B,/A,/G, | 
A,A, A,/A,3/ | 
F, z A,/F,/F, ||  
[M:3/4]B,/A,/A, F,/E,3/- E,E, ||  
[M:2/4]E,2D, z | 
E,2F,3/E,/ | 
F,/F,3/E,2 ||  
[M:3/4]E,2z2E,E, ||  
[M:2/4]B,B, B,/A,/G, | 
A,A, A,/A,3/ | 
F, z A,/F,/F, ||  
[M:3/4]B,/A,/A, F,/E,3/- E,E, ||  
[M:2/4]E,2D, z | 
E,2F,3/E,/ | 
F,/F,3/E,2 ||  
[M:3/4]E,2z2A,/F,3/ ||  
[M:2/4]B,B,/B,/ A,/F,3/ ||  
[M:3/4]A,A,/A,/ F,/E,3/- E,E, ||  
[M:2/4]E,2D, z | 
E,2F,3/E,/ | 
F,/F,3/E,2 ||  
[M:3/4]E,2z2A,3/F,/ ||  
[M:2/4]B,B,/B,/ A,/F,3/ ||  
[M:3/4]A,A,/A,/ F,/E,3/- E,E, ||  
[M:2/4]E,2D, z | 
E,2F,3/E,/ | 
F,/F,3/E,2 | 
E,4 |]  



